src/lib/packages/icons/src/assets/line/file-text-heart.svg

<svg width="24" height="24" viewBox="0 0 24 24" fill="none" xmlns="http://www.w3.org/2000/svg">
<path d="M21.0901 15.676C20.5981 15.074 19.893 14.754 19.051 14.75C19.046 14.75 19.0421 14.75 19.0381 14.75C18.3771 14.75 17.869 15.006 17.5 15.338C17.131 15.005 16.6229 14.75 15.9619 14.75C15.9579 14.75 15.953 14.75 15.949 14.75C15.109 14.754 14.4039 15.074 13.9109 15.676C13.3289 16.388 13.1161 17.417 13.3301 18.499C13.8551 21.162 17.0581 22.623 17.1931 22.684C17.2911 22.728 17.395 22.749 17.5 22.749C17.605 22.749 17.7089 22.727 17.8069 22.684C17.9429 22.623 21.1449 21.163 21.6689 18.499C21.8829 17.417 21.6721 16.388 21.0901 15.676ZM20.198 18.209C19.901 19.713 18.205 20.776 17.5 21.159C16.795 20.776 15.099 19.713 14.802 18.21C14.677 17.578 14.779 16.986 15.073 16.627C15.279 16.376 15.568 16.252 15.958 16.251C15.959 16.251 15.9599 16.251 15.9619 16.251C16.5409 16.251 16.77 16.827 16.791 16.884C16.893 17.185 17.1749 17.384 17.4929 17.389C17.4959 17.389 17.4989 17.389 17.5029 17.389C17.8159 17.389 18.1 17.188 18.208 16.893C18.232 16.827 18.461 16.251 19.04 16.251C19.042 16.251 19.0429 16.251 19.0439 16.251C19.4349 16.253 19.7249 16.376 19.9299 16.627C20.2219 16.985 20.322 17.577 20.198 18.209ZM11 20.25H6C4.423 20.25 3.75 19.577 3.75 18V6C3.75 4.423 4.423 3.75 6 3.75H11.25V6C11.25 8.418 12.582 9.75 15 9.75H17.25V12C17.25 12.414 17.586 12.75 18 12.75C18.414 12.75 18.75 12.414 18.75 12V9C18.75 8.801 18.671 8.61 18.53 8.47L12.53 2.47C12.389 2.329 12.199 2.25 12 2.25H6C3.582 2.25 2.25 3.582 2.25 6V18C2.25 20.418 3.582 21.75 6 21.75H11C11.414 21.75 11.75 21.414 11.75 21C11.75 20.586 11.414 20.25 11 20.25ZM12.75 6V4.811L16.189 8.25H15C13.423 8.25 12.75 7.577 12.75 6ZM14 11.25C14.414 11.25 14.75 11.586 14.75 12C14.75 12.414 14.414 12.75 14 12.75H7C6.586 12.75 6.25 12.414 6.25 12C6.25 11.586 6.586 11.25 7 11.25H14ZM11.75 16C11.75 16.414 11.414 16.75 11 16.75H7C6.586 16.75 6.25 16.414 6.25 16C6.25 15.586 6.586 15.25 7 15.25H11C11.414 15.25 11.75 15.586 11.75 16Z" fill="currentColor"/>
</svg>

<svg xmlns="http://www.w3.org/2000/svg" width="24" height="24" fill="none"><path fill="currentColor" d="M21.09 15.676c-.492-.602-1.197-.922-2.039-.926h-.013a2.25 2.25 0 0 0-1.538.588 2.244 2.244 0 0 0-1.538-.588h-.013c-.84.004-1.545.324-2.038.926-.582.712-.795 1.741-.58 2.823.524 2.663 3.727 4.124 3.862 4.185a.746.746 0 0 0 .614 0c.136-.061 3.338-1.521 3.862-4.185.214-1.082.003-2.111-.579-2.823Zm-.892 2.533c-.297 1.504-1.993 2.567-2.698 2.95-.705-.383-2.401-1.446-2.698-2.949-.125-.632-.023-1.224.271-1.583.206-.251.495-.375.885-.376h.004c.579 0 .808.576.829.633.102.301.384.5.702.505h.01a.757.757 0 0 0 .705-.496c.024-.066.253-.642.832-.642h.004c.39.002.68.125.886.376.292.358.392.95.268 1.582ZM11 20.25H6c-1.577 0-2.25-.673-2.25-2.25V6c0-1.577.673-2.25 2.25-2.25h5.25V6c0 2.418 1.332 3.75 3.75 3.75h2.25V12a.75.75 0 0 0 1.5 0V9a.747.747 0 0 0-.22-.53l-6-6a.749.749 0 0 0-.53-.22H6C3.582 2.25 2.25 3.582 2.25 6v12c0 2.418 1.332 3.75 3.75 3.75h5a.75.75 0 0 0 0-1.5ZM12.75 6V4.811l3.439 3.439H15c-1.577 0-2.25-.673-2.25-2.25ZM14 11.25a.75.75 0 0 1 0 1.5H7a.75.75 0 0 1 0-1.5h7ZM11.75 16a.75.75 0 0 1-.75.75H7a.75.75 0 0 1 0-1.5h4a.75.75 0 0 1 .75.75Z"/></svg>
